T: Ironlegs
M: 4/4
L: 1/8
K: Dmaj
F2 A2 F2 AG | F2 EF D2 A2 | B2 c2 d2 ed | c2 Bc A2 AG |F2 A2 E2 AG | F2 EF D2 A2 | Bc d2 gedc | d2 d2 d2 :|fgfg egeg | fgeg egeg | dede cece | dede cece | BdBd AdAd | BdBd AdAd | Bc d2 gedc | d2 d2 d2 :|
